X:1
T:Title
%%score { 1 | ( 2 3 ) }
L:1/8
M:3/4
K:C
V:1 treble nm="Grand Piano"
V:2 bass 
V:3 bass 
V:1
 z2 z2[Q:1/4=92] [_E,G,C]2 | [CG]4 z2 | [G,B,]4 z2 | [B,D]4 z2 | [C_E]4 C2 | [_EG]4 z2 | %6
 [D^G]4 z2 | [B,D]4 z2 | [G,C]4 CD | _E2 C2 DC | [G,B,]4 z2 | [DF]2 [B,D]2 z2 | [G,C]4 CD | %13
 E2 E2 FG | [F^G]4 F=G | ^G2 c2 Bc | [Gd]4 G2 | [G_e]4 z2 | [^Gc]4 z2 | [F^G]3 c Bc | [_EG]4 z2 | %21
 [B,D]4 z2 | [G,C]4 z2 |] %23
V:2
 z2 z2 C,2 | C,_E, z2 _EC | G,,D, z2[K:treble] F_E | G,,D, z2[K:treble] GF | C,2 _E,2 G,2 | %5
 z2 G,4[K:treble] | _B,,^G, z2[K:treble] F_E | G,,D, z2 _ED | C,,G,, _E,4 | C2 z2 z2 | %10
 G,,2 z2 D_E | G,,2 F,2 _ED | C,,G,, _E,4 | [C,G,C]2 [C,G,C]2 F,G, | F,,C, ^G,4 | %15
 [F,CF]2 [F,^G,F]2 z2 | G,,D, B,2 F,2 | C,G,[K:treble] _Ed cB | F,,C, z2[K:treble] FG | %19
 F,,C, ^G,C B,C | z2[K:treble] C4 | G,,D, F,G, _ED | C,G,, C,,2 z2 |] %23
V:3
 x6 | z2 G,4 | z2 F,4[K:treble] | z2 G,4[K:treble] | x6 | _E,,_B,, z2[K:treble] FG | %6
 z2 _B,4[K:treble] | z2 G,4 | x6 | [C,_E,]6 | z2 D,4 | x6 | x6 | x6 | x6 | x6 | x6 | %17
 x2[K:treble] x4 | z2 F,4[K:treble] | x6 | C,G,[K:treble] z2 F_E | x6 | x6 |] %23

